icons/svg/place_of_worship/jain3.svg

<?xml version="1.0" encoding="UTF-8" standalone="no"?>
<!-- Created with Inkscape (http://www.inkscape.org/) -->

<svg
   xmlns:dc="http://purl.org/dc/elements/1.1/"
   xmlns:cc="http://creativecommons.org/ns#"
   xmlns:rdf="http://www.w3.org/1999/02/22-rdf-syntax-ns#"
   xmlns:svg="http://www.w3.org/2000/svg"
   xmlns="http://www.w3.org/2000/svg"
   xmlns:sodipodi="http://sodipodi.sourceforge.net/DTD/sodipodi-0.dtd"
   xmlns:inkscape="http://www.inkscape.org/namespaces/inkscape"
   version="1.0"
   width="580"
   height="580"
   id="svg2"
   sodipodi:version="0.32"
   inkscape:version="0.91 r13725"
   sodipodi:docname="jain3.svg"
   inkscape:output_extension="org.inkscape.output.svg.inkscape">
  <metadata
     id="metadata2975">
    <rdf:RDF>
      <cc:Work
         rdf:about="">
        <dc:format>image/svg+xml</dc:format>
        <dc:type
           rdf:resource="http://purl.org/dc/dcmitype/StillImage" />
        <cc:license
           rdf:resource="http://web.resource.org/cc/PublicDomain" />
        <dc:language>en</dc:language>
      </cc:Work>
    </rdf:RDF>
  </metadata>
  <sodipodi:namedview
     inkscape:window-height="1051"
     inkscape:window-width="1920"
     inkscape:pageshadow="2"
     inkscape:pageopacity="0.0"
     guidetolerance="10.0"
     gridtolerance="10.0"
     objecttolerance="10.0"
     borderopacity="1.0"
     bordercolor="#666666"
     pagecolor="#ffffff"
     id="base"
     inkscape:zoom="0.92167712"
     inkscape:cx="275.4637"
     inkscape:cy="251.60599"
     inkscape:window-x="0"
     inkscape:window-y="0"
     inkscape:current-layer="svg2"
     showgrid="false"
     inkscape:window-maximized="1" />
  <defs
     id="defs4">
    <inkscape:perspective
       sodipodi:type="inkscape:persp3d"
       inkscape:vp_x="0 : 290 : 1"
       inkscape:vp_y="0 : 1000 : 0"
       inkscape:vp_z="580 : 290 : 1"
       inkscape:persp3d-origin="290 : 193.33333 : 1"
       id="perspective2441" />
    <inkscape:perspective
       id="perspective2466"
       inkscape:persp3d-origin="372.04724 : 350.78739 : 1"
       inkscape:vp_z="744.09448 : 526.18109 : 1"
       inkscape:vp_y="0 : 1000 : 0"
       inkscape:vp_x="0 : 526.18109 : 1"
       sodipodi:type="inkscape:persp3d" />
    <inkscape:perspective
       id="perspective3333"
       inkscape:persp3d-origin="372.04724 : 350.78739 : 1"
       inkscape:vp_z="744.09448 : 526.18109 : 1"
       inkscape:vp_y="0 : 1000 : 0"
       inkscape:vp_x="0 : 526.18109 : 1"
       sodipodi:type="inkscape:persp3d" />
    <inkscape:perspective
       id="perspective3401"
       inkscape:persp3d-origin="372.04724 : 350.78739 : 1"
       inkscape:vp_z="744.09448 : 526.18109 : 1"
       inkscape:vp_y="0 : 1000 : 0"
       inkscape:vp_x="0 : 526.18109 : 1"
       sodipodi:type="inkscape:persp3d" />
    <inkscape:perspective
       id="perspective3464"
       inkscape:persp3d-origin="372.04724 : 350.78739 : 1"
       inkscape:vp_z="744.09448 : 526.18109 : 1"
       inkscape:vp_y="0 : 1000 : 0"
       inkscape:vp_x="0 : 526.18109 : 1"
       sodipodi:type="inkscape:persp3d" />
    <inkscape:perspective
       id="perspective3581"
       inkscape:persp3d-origin="225 : 150 : 1"
       inkscape:vp_z="450 : 225 : 1"
       inkscape:vp_y="0 : 1000 : 0"
       inkscape:vp_x="0 : 225 : 1"
       sodipodi:type="inkscape:persp3d" />
    <inkscape:perspective
       id="perspective4312"
       inkscape:persp3d-origin="225 : 150 : 1"
       inkscape:vp_z="450 : 225 : 1"
       inkscape:vp_y="0 : 1000 : 0"
       inkscape:vp_x="0 : 225 : 1"
       sodipodi:type="inkscape:persp3d" />
  </defs>
  <g
     id="g1327">
    <path
       d="M 66.275,1.768 C 24.94,1.768 1.704,23.139 1.704,66.804 L 1.704,516.927 C 1.704,557.771 22.599,579.156 63.896,579.156 L 515.92,579.156 C 557.227,579.156 578.149,558.841 578.149,516.927 L 578.149,66.804 C 578.149,24.203 557.227,1.768 514.628,1.768 C 514.624,1.768 66.133,1.625 66.275,1.768 z "
       style="fill:#111;stroke:#eee;stroke-width:3.40799999"
       id="path1329" />
  </g>
  <g
     style="opacity:1"
     transform="matrix(1.5591179,0,0,1.5591179,14.885812,-257.83609)"
     id="g6700">
    <path
       sodipodi:nodetypes="cscssscccssssscccsscsscscsccssssscccccsscccccscccccssssccccccsc"
       id="path6702"
       d="m 142.0916,514.24122 c -5.82038,-1.69854 -13.98039,-4.85253 -18.13336,-7.00884 -12.98305,-6.74111 -33.325809,-28.60928 -40.137069,-43.1468 0,0 -5.57613,-13.38813 -5.88328,-20.38415 -1.08045,-24.60852 -0.72801,-34.0588 -0.51718,-77.93671 0.22374,-46.56194 0.78221,-87.44425 1.73826,-90.84714 2.12106,-7.54951 15.87115,-14.68523 25.557959,-13.2635 l 6.80298,0.99845 0,-21.4103 c 0,-15.24491 1.01789,-22.86354 3.53479,-26.45694 4.06869,-5.80885 18.16088,-11.13466 24.84059,-9.38786 3.35037,0.87614 4.54798,-0.0208 4.54798,-3.40616 0,-2.5275 2.80016,-7.19055 6.22257,-10.36234 4.94621,-4.58399 8.7304,-5.76688 18.44889,-5.76688 15.88886,0 20.72878,4.99132 22.35315,23.05235 l 1.18461,13.17125 9.99332,0.24145 c 6.0943,0.14723 12.51704,2.12367 16.46168,5.06568 6.39459,4.76923 6.11608,5.17604 7.12822,34.7833 0.59241,17.07062 0.26945,27.53806 1.23533,31.29274 11.56812,-12.0194 46.90091,-4.46986 48.2034,4.48945 0.39245,2.69948 -1.97352,8.8677 -5.25767,13.70718 -10.14209,14.9452 -11.47008,23.30384 -12.90147,81.20461 0,0 0.41314,24.85246 -1.88493,42.65438 -2.2981,17.80192 -7.30741,28.55328 -7.30741,28.55328 -9.50914,19.30161 -26.28463,36.61749 -43.75588,45.16538 -15.63453,7.64925 -45.26737,10.01992 -62.47548,4.99812 z m 52.25759,-21.24063 c 18.60358,-8.4427 32.43239,-23.32387 40.65754,-43.75162 3.52689,-8.75931 4.5232,-20.50884 5.78294,-68.1984 1.25523,-47.51851 2.21917,-58.93487 5.50032,-65.14203 2.18811,-4.13939 3.97839,-8.49018 3.97839,-9.66849 0,-3.96164 -11.33547,-0.0203 -16.86267,5.86311 -4.73118,5.0361 -5.63585,8.92101 -6.65282,28.5693 l -1.17704,22.74059 -6.8435,0 -6.84349,0 0.54558,-59.52274 c 0.56751,-61.91062 -0.0484,-66.29155 -9.31943,-66.29155 -2.33607,0 -5.91037,1.66296 -7.94288,3.69549 -3.13482,3.13482 -3.69548,11.51911 -3.69548,55.26422 l 0,51.56873 -7.05501,0 -7.055,0 0,-70.26213 c 0,-75.19369 -0.43299,-77.96003 -11.64549,-74.40132 -4.71251,1.49568 -4.81619,3.04416 -4.81619,71.92019 l 0,70.39159 -8.23085,0 -8.23084,0 0,-59.8507 c 0,-53.05636 -0.43837,-60.09603 -3.86151,-62.01172 -2.12384,-1.18856 -5.69024,-1.68279 -7.92536,-1.0983 -3.5679,0.93305 -4.26908,6.02114 -5.7459,41.69601 -0.92512,22.3483 -1.49235,50.56904 -1.26045,62.71275 0.57092,29.89907 0.92886,28.38025 -6.48722,27.52692 l -6.46709,-0.74411 -0.6536,-35.17683 c -0.68626,-36.9359 -1.25069,-38.79438 -11.80345,-38.86474 l -5.402039,-0.036 0.6987,84.07217 c 0.6889,82.89123 0.7757,84.21649 6.180589,94.34675 18.31506,34.32745 59.44591,49.71397 92.63325,34.65287 z"
       style="fill:#ffffff"
       inkscape:connector-curvature="0" />
    <path
       style="fill:#ffffff"
       d="m 168.57903,363.87475 c -17.55614,-1.15609 -34.95277,6.26848 -46.1875,19.84375 -15.88788,17.59337 -19.02858,44.49441 -10.65625,66.21875 6.07801,13.65035 18.08449,24.23615 30.92982,31.40759 14.51904,7.11612 32.18989,5.36845 46.78893,-0.0326 15.68133,-7.03907 27.45236,-21.63346 33.68549,-37.28354 5.33529,-17.17517 6.70135,-37.70053 -3.43549,-53.49771 -11.54666,-16.33753 -30.94934,-27.17829 -51.125,-26.65625 z"
       id="path6704"
       inkscape:connector-curvature="0" />
  </g>
</svg>

<?xml version="1.0" encoding="UTF-8" standalone="no"?>
<!-- Created with Inkscape (http://www.inkscape.org/) -->
<svg
   xmlns:dc="http://purl.org/dc/elements/1.1/"
   xmlns:cc="http://creativecommons.org/ns#"
   xmlns:rdf="http://www.w3.org/1999/02/22-rdf-syntax-ns#"
   xmlns:svg="http://www.w3.org/2000/svg"
   xmlns="http://www.w3.org/2000/svg"
   xmlns:sodipodi="http://sodipodi.sourceforge.net/DTD/sodipodi-0.dtd"
   xmlns:inkscape="http://www.inkscape.org/namespaces/inkscape"
   version="1.0"
   width="580"
   height="580"
   id="svg2"
   sodipodi:version="0.32"
   inkscape:version="0.46"
   sodipodi:docname="place_of_worship_jain3.svg"
   sodipodi:docbase="s:\Data\FacilityIcons"
   inkscape:output_extension="org.inkscape.output.svg.inkscape">
  <metadata
     id="metadata2975">
    <rdf:RDF>
      <cc:Work
         rdf:about="">
        <dc:format>image/svg+xml</dc:format>
        <dc:type
           rdf:resource="http://purl.org/dc/dcmitype/StillImage" />
        <cc:license
           rdf:resource="http://web.resource.org/cc/PublicDomain" />
        <dc:language>en</dc:language>
      </cc:Work>
    </rdf:RDF>
  </metadata>
  <sodipodi:namedview
     inkscape:window-height="1003"
     inkscape:window-width="1400"
     inkscape:pageshadow="2"
     inkscape:pageopacity="0.0"
     guidetolerance="10.0"
     gridtolerance="10.0"
     objecttolerance="10.0"
     borderopacity="1.0"
     bordercolor="#666666"
     pagecolor="#ffffff"
     id="base"
     inkscape:zoom="0.65172414"
     inkscape:cx="-57.954519"
     inkscape:cy="172.10413"
     inkscape:window-x="0"
     inkscape:window-y="20"
     inkscape:current-layer="svg2"
     showgrid="false" />
  <defs
     id="defs4">
    <inkscape:perspective
       sodipodi:type="inkscape:persp3d"
       inkscape:vp_x="0 : 290 : 1"
       inkscape:vp_y="0 : 1000 : 0"
       inkscape:vp_z="580 : 290 : 1"
       inkscape:persp3d-origin="290 : 193.33333 : 1"
       id="perspective2441" />
    <inkscape:perspective
       id="perspective2466"
       inkscape:persp3d-origin="372.04724 : 350.78739 : 1"
       inkscape:vp_z="744.09448 : 526.18109 : 1"
       inkscape:vp_y="0 : 1000 : 0"
       inkscape:vp_x="0 : 526.18109 : 1"
       sodipodi:type="inkscape:persp3d" />
    <inkscape:perspective
       id="perspective3333"
       inkscape:persp3d-origin="372.04724 : 350.78739 : 1"
       inkscape:vp_z="744.09448 : 526.18109 : 1"
       inkscape:vp_y="0 : 1000 : 0"
       inkscape:vp_x="0 : 526.18109 : 1"
       sodipodi:type="inkscape:persp3d" />
    <inkscape:perspective
       id="perspective3401"
       inkscape:persp3d-origin="372.04724 : 350.78739 : 1"
       inkscape:vp_z="744.09448 : 526.18109 : 1"
       inkscape:vp_y="0 : 1000 : 0"
       inkscape:vp_x="0 : 526.18109 : 1"
       sodipodi:type="inkscape:persp3d" />
    <inkscape:perspective
       id="perspective3464"
       inkscape:persp3d-origin="372.04724 : 350.78739 : 1"
       inkscape:vp_z="744.09448 : 526.18109 : 1"
       inkscape:vp_y="0 : 1000 : 0"
       inkscape:vp_x="0 : 526.18109 : 1"
       sodipodi:type="inkscape:persp3d" />
    <inkscape:perspective
       id="perspective3581"
       inkscape:persp3d-origin="225 : 150 : 1"
       inkscape:vp_z="450 : 225 : 1"
       inkscape:vp_y="0 : 1000 : 0"
       inkscape:vp_x="0 : 225 : 1"
       sodipodi:type="inkscape:persp3d" />
    <inkscape:perspective
       id="perspective4312"
       inkscape:persp3d-origin="225 : 150 : 1"
       inkscape:vp_z="450 : 225 : 1"
       inkscape:vp_y="0 : 1000 : 0"
       inkscape:vp_x="0 : 225 : 1"
       sodipodi:type="inkscape:persp3d" />
  </defs>
  <g
     id="g1327">
    <path
       d="M 66.275,1.768 C 24.94,1.768 1.704,23.139 1.704,66.804 L 1.704,516.927 C 1.704,557.771 22.599,579.156 63.896,579.156 L 515.92,579.156 C 557.227,579.156 578.149,558.841 578.149,516.927 L 578.149,66.804 C 578.149,24.203 557.227,1.768 514.628,1.768 C 514.624,1.768 66.133,1.625 66.275,1.768 z "
       style="fill:#111;stroke:#eee;stroke-width:3.40799999"
       id="path1329" />
  </g>
  <g
     id="g6659"
     transform="matrix(1.5591179,0,0,1.5591179,42.229719,-235.69855)"
     style="opacity:0.25">
    <path
       style="fill:#ffffff"
       d="M 142.0916,514.24122 C 136.27122,512.54268 128.11121,509.38869 123.95824,507.23238 C 110.97519,500.49127 90.632431,478.6231 83.821171,464.08558 C 83.821171,464.08558 78.245041,450.69745 77.937891,443.70143 C 76.857441,419.09291 77.209881,409.64263 77.420711,365.76472 C 77.644451,319.20278 78.202921,278.32047 79.158971,274.91758 C 81.280031,267.36807 95.030121,260.23235 104.71693,261.65408 L 111.51991,262.65253 L 111.51991,241.24223 C 111.51991,225.99732 112.5378,218.37869 115.0547,214.78529 C 119.12339,208.97644 133.21558,203.65063 139.89529,205.39743 C 143.24566,206.27357 144.44327,205.37662 144.44327,201.99127 C 144.44327,199.46377 147.24343,194.80072 150.66584,191.62893 C 155.61205,187.04494 159.39624,185.86205 169.11473,185.86205 C 185.00359,185.86205 189.84351,190.85337 191.46788,208.9144 L 192.65249,222.08565 L 202.64581,222.3271 C 208.74011,222.47433 215.16285,224.45077 219.10749,227.39278 C 225.50208,232.16201 225.22357,232.56882 226.23571,262.17608 C 226.82812,279.2467 226.50516,289.71414 227.47104,293.46882 C 239.03916,281.44942 274.37195,288.99896 275.67444,297.95827 C 276.06689,300.65775 273.70092,306.82597 270.41677,311.66545 C 260.27468,326.61065 258.94669,334.96929 257.5153,392.87006 C 257.5153,392.87006 257.92844,417.72252 255.63037,435.52444 C 253.33227,453.32636 248.32296,464.07772 248.32296,464.07772 C 238.81382,483.37933 222.03833,500.69521 204.56708,509.2431 C 188.93255,516.89235 159.29971,519.26302 142.0916,514.24122 z M 194.34919,493.00059 C 212.95277,484.55789 226.78158,469.67672 235.00673,449.24897 C 238.53362,440.48966 239.52993,428.74013 240.78967,381.05057 C 242.0449,333.53206 243.00884,322.1157 246.28999,315.90854 C 248.4781,311.76915 250.26838,307.41836 250.26838,306.24005 C 250.26838,302.27841 238.93291,306.21973 233.40571,312.10316 C 228.67453,317.13926 227.76986,321.02417 226.75289,340.67246 L 225.57585,363.41305 L 218.73235,363.41305 L 211.88886,363.41305 L 212.43444,303.89031 C 213.00195,241.97969 212.38605,237.59876 203.11501,237.59876 C 200.77894,237.59876 197.20464,239.26172 195.17213,241.29425 C 192.03731,244.42907 191.47665,252.81336 191.47665,296.55847 L 191.47665,348.1272 L 184.42164,348.1272 L 177.36664,348.1272 L 177.36664,277.86507 C 177.36664,202.67138 176.93365,199.90504 165.72115,203.46375 C 161.00864,204.95943 160.90496,206.50791 160.90496,275.38394 L 160.90496,345.77553 L 152.67411,345.77553 L 144.44327,345.77553 L 144.44327,285.92483 C 144.44327,232.86847 144.0049,225.8288 140.58176,223.91311 C 138.45792,222.72455 134.89152,222.23032 132.6564,222.81481 C 129.0885,223.74786 128.38732,228.83595 126.9105,264.51082 C 125.98538,286.85912 125.41815,315.07986 125.65005,327.22357 C 126.22097,357.12264 126.57891,355.60382 119.16283,354.75049 L 112.69574,354.00638 L 112.04214,318.82955 C 111.35588,281.89365 110.79145,280.03517 100.23869,279.96481 L 94.836651,279.9288 L 95.535351,364.00097 C 96.224251,446.8922 96.311051,448.21746 101.71594,458.34772 C 120.031,492.67517 161.16185,508.06169 194.34919,493.00059 z"
       id="path1873"
       sodipodi:nodetypes="cscssscccssssscccsscsscscsccssssscccccsscccccscccccssssccccccsc" />
    <path
       id="path5122"
       d="M 168.57903,363.87475 C 151.02289,362.71866 133.62626,370.14323 122.39153,383.7185 C 106.50365,401.31187 103.36295,428.21291 111.73528,449.93725 C 117.81329,463.5876 129.81977,474.1734 142.6651,481.34484 C 157.18414,488.46096 174.85499,486.71329 189.45403,481.31225 C 205.13536,474.27318 216.90639,459.67879 223.13952,444.02871 C 228.47481,426.85354 229.84087,406.32818 219.70403,390.531 C 208.15737,374.19347 188.75469,363.35271 168.57903,363.87475 z"
       style="fill:#ffffff" />
  </g>
  <g
     style="opacity:1"
     transform="matrix(1.5591179,0,0,1.5591179,2.229719,-275.69855)"
     id="g6700">
    <path
       sodipodi:nodetypes="cscssscccssssscccsscsscscsccssssscccccsscccccscccccssssccccccsc"
       id="path6702"
       d="M 142.0916,514.24122 C 136.27122,512.54268 128.11121,509.38869 123.95824,507.23238 C 110.97519,500.49127 90.632431,478.6231 83.821171,464.08558 C 83.821171,464.08558 78.245041,450.69745 77.937891,443.70143 C 76.857441,419.09291 77.209881,409.64263 77.420711,365.76472 C 77.644451,319.20278 78.202921,278.32047 79.158971,274.91758 C 81.280031,267.36807 95.030121,260.23235 104.71693,261.65408 L 111.51991,262.65253 L 111.51991,241.24223 C 111.51991,225.99732 112.5378,218.37869 115.0547,214.78529 C 119.12339,208.97644 133.21558,203.65063 139.89529,205.39743 C 143.24566,206.27357 144.44327,205.37662 144.44327,201.99127 C 144.44327,199.46377 147.24343,194.80072 150.66584,191.62893 C 155.61205,187.04494 159.39624,185.86205 169.11473,185.86205 C 185.00359,185.86205 189.84351,190.85337 191.46788,208.9144 L 192.65249,222.08565 L 202.64581,222.3271 C 208.74011,222.47433 215.16285,224.45077 219.10749,227.39278 C 225.50208,232.16201 225.22357,232.56882 226.23571,262.17608 C 226.82812,279.2467 226.50516,289.71414 227.47104,293.46882 C 239.03916,281.44942 274.37195,288.99896 275.67444,297.95827 C 276.06689,300.65775 273.70092,306.82597 270.41677,311.66545 C 260.27468,326.61065 258.94669,334.96929 257.5153,392.87006 C 257.5153,392.87006 257.92844,417.72252 255.63037,435.52444 C 253.33227,453.32636 248.32296,464.07772 248.32296,464.07772 C 238.81382,483.37933 222.03833,500.69521 204.56708,509.2431 C 188.93255,516.89235 159.29971,519.26302 142.0916,514.24122 z M 194.34919,493.00059 C 212.95277,484.55789 226.78158,469.67672 235.00673,449.24897 C 238.53362,440.48966 239.52993,428.74013 240.78967,381.05057 C 242.0449,333.53206 243.00884,322.1157 246.28999,315.90854 C 248.4781,311.76915 250.26838,307.41836 250.26838,306.24005 C 250.26838,302.27841 238.93291,306.21973 233.40571,312.10316 C 228.67453,317.13926 227.76986,321.02417 226.75289,340.67246 L 225.57585,363.41305 L 218.73235,363.41305 L 211.88886,363.41305 L 212.43444,303.89031 C 213.00195,241.97969 212.38605,237.59876 203.11501,237.59876 C 200.77894,237.59876 197.20464,239.26172 195.17213,241.29425 C 192.03731,244.42907 191.47665,252.81336 191.47665,296.55847 L 191.47665,348.1272 L 184.42164,348.1272 L 177.36664,348.1272 L 177.36664,277.86507 C 177.36664,202.67138 176.93365,199.90504 165.72115,203.46375 C 161.00864,204.95943 160.90496,206.50791 160.90496,275.38394 L 160.90496,345.77553 L 152.67411,345.77553 L 144.44327,345.77553 L 144.44327,285.92483 C 144.44327,232.86847 144.0049,225.8288 140.58176,223.91311 C 138.45792,222.72455 134.89152,222.23032 132.6564,222.81481 C 129.0885,223.74786 128.38732,228.83595 126.9105,264.51082 C 125.98538,286.85912 125.41815,315.07986 125.65005,327.22357 C 126.22097,357.12264 126.57891,355.60382 119.16283,354.75049 L 112.69574,354.00638 L 112.04214,318.82955 C 111.35588,281.89365 110.79145,280.03517 100.23869,279.96481 L 94.836651,279.9288 L 95.535351,364.00097 C 96.224251,446.8922 96.311051,448.21746 101.71594,458.34772 C 120.031,492.67517 161.16185,508.06169 194.34919,493.00059 z"
       style="fill:#ffffff" />
    <path
       style="fill:#ffffff"
       d="M 168.57903,363.87475 C 151.02289,362.71866 133.62626,370.14323 122.39153,383.7185 C 106.50365,401.31187 103.36295,428.21291 111.73528,449.93725 C 117.81329,463.5876 129.81977,474.1734 142.6651,481.34484 C 157.18414,488.46096 174.85499,486.71329 189.45403,481.31225 C 205.13536,474.27318 216.90639,459.67879 223.13952,444.02871 C 228.47481,426.85354 229.84087,406.32818 219.70403,390.531 C 208.15737,374.19347 188.75469,363.35271 168.57903,363.87475 z"
       id="path6704" />
  </g>
</svg>
